X:529
M:C|
L:1/8
K:A Minor
|:g|agea geae|gedg BGdB|1 agea geae|gegB A/A/A A:|2 cAdB ecae|
gegB A/A/A A||

